X: 8035
T: Connie Flemming's
R: polka
M: 2/4
K: Gmajor
G2 GA|Bd ed|B2 BA|GE ED|
G2 GA|Bd ed|e/f/g/e/ af|g2 g2:|
g>a ba|gf ed|B>c BA|GE ED|
G2 GA|Bd ed|e/f/g/e/ af|g2 g2:|

